docs/img/steps/emoji-bg.svg

<svg width="353" height="370" viewBox="0 0 353 370" fill="none" xmlns="http://www.w3.org/2000/svg">
<path d="M253 25C207.167 25 169.667 55 169.667 91.6667C169.667 110 178.833 126.667 193 137.5C193 142.5 189.667 155.833 169.667 175C189.667 174.167 208 166.667 223.833 154.167C233 156.667 243 158.333 253 158.333C298.833 158.333 336.333 128.333 336.333 91.6667C336.333 55 298.833 25 253 25ZM253 141.667C216.333 141.667 186.333 119.167 186.333 91.6667C186.333 64.1667 216.333 41.6667 253 41.6667C289.667 41.6667 319.667 64.1667 319.667 91.6667C319.667 119.167 289.667 141.667 253 141.667ZM254.667 54.1667C247.167 54.1667 241.333 55.8333 237.167 58.3333C232.167 61.6667 229.667 66.6667 230.5 72.5H247.167C247.167 70 248 68.3333 249.667 67.5C251.333 66.6667 253 65.8333 255.5 65.8333C258 65.8333 260.5 66.6667 262.167 68.3333C263.833 70 264.667 71.6667 264.667 74.1667C264.667 76.6667 263.833 78.3333 263 80C261.333 81.6667 259.667 83.3333 258 84.1667C253.833 86.6667 250.5 89.1667 248.833 90.8333C245.5 93.3333 244.667 95.8333 244.667 100H261.333C261.333 97.5 262.167 95.8333 262.167 94.1667C263 92.5 264.667 91.6667 266.333 90C270.5 88.3333 273 85.8333 275.5 82.5C278 79.1667 278.833 75.8333 278.833 72.5C278.833 66.6667 276.333 61.6667 272.167 58.3333C268.833 55.8333 262.167 54.1667 254.667 54.1667ZM244.667 108.333V125H261.333V108.333H244.667Z" fill="#FE9E45"/>
<path d="M99.375 355.625C55.7813 355.625 8.75 328.281 8.75 268.281C8.75 208.281 55.7813 180.938 99.375 180.938C123.594 180.938 145.938 188.906 162.5 203.438C180.469 219.375 190 241.875 190 268.281C190 294.688 180.469 317.031 162.5 332.969C145.938 347.5 123.438 355.625 99.375 355.625Z" fill="#FE9E45"/>
<path d="M99.375 355.625C55.7813 355.625 8.75 328.281 8.75 268.281C8.75 208.281 55.7813 180.938 99.375 180.938C123.594 180.938 145.938 188.906 162.5 203.438C180.469 219.375 190 241.875 190 268.281C190 294.688 180.469 317.031 162.5 332.969C145.938 347.5 123.438 355.625 99.375 355.625Z" fill="#FE9E45"/>
<path d="M174.203 216.359C182.531 229.797 186.875 245.797 186.875 263.594C186.875 290 177.344 312.344 159.375 328.281C142.812 342.812 120.312 350.938 96.25 350.938C68.0312 350.938 38.4375 339.453 20.9688 315.094C37.7812 342.687 69.4062 355.625 99.375 355.625C123.438 355.625 145.938 347.5 162.5 332.969C180.469 317.031 190 294.688 190 268.281C190 248.375 184.578 230.687 174.203 216.359Z" fill="#DD6E25"/>
<path opacity="0.66" d="M10.125 287.359C11.6875 283.281 18.5938 283.219 23.7031 285.688C33.5938 290.484 32.4219 300.984 37.375 303.078C42.3281 305.172 57.9688 292.344 79.9531 290.313C82.4219 290.078 97 288.25 98.4375 294.375C99 296.797 94.875 297.266 94.875 297.266C85.9375 300.578 76.8438 303.953 68.8438 309.188C59.7656 315.109 51.8281 323.484 41.2813 325.953C37.1719 326.906 32.5313 326.766 29.1875 324.219C25.0313 321.094 24.1094 315.359 22.5938 310.375C20.8517 304.669 18.0063 299.36 14.2188 294.75" fill="url(#paint0_linear)"/>
<path d="M9.93761 287.344C7.09386 290.797 13.1407 299.969 14.2189 304.64C16.8126 315.922 14.2189 318.703 14.0157 328.734C13.8439 339.765 17.1407 349.047 25.547 354.969C33.4532 360.578 42.1564 361.219 54.3439 357.625C66.5314 354.031 74.7657 352.297 75.3907 346.297C75.7345 343.812 74.422 341.375 72.1407 340.312C73.3595 339.734 74.3282 338.75 74.8751 337.515C77.7814 330.578 71.9845 329.109 71.9845 329.109C72.7814 328.156 73.4532 327.109 73.9845 325.984C75.7189 322.531 75.4376 317.844 70.4376 316.312C68.1407 315.609 67.5157 315.984 67.5157 315.984C69.8907 313.547 72.7345 311.594 75.8751 310.281C84.2814 306.672 94.2501 304.484 96.7345 302.375C100.344 299.25 100.563 293.234 94.1876 291.437C85.0314 288.75 68.1876 295 57.9376 301.515C47.6876 308.031 38.2814 311.547 35.1564 310.359C32.0314 309.172 30.0939 307.234 28.9064 302.547C26.7032 293.828 25.0001 290.453 21.2657 287.187C18.172 284.531 12.1251 284.687 9.93761 287.344Z" fill="#FFBB7C"/>
<path d="M60.7502 321.219C60.7502 321.219 58.4533 319.656 67.6252 312.328C73.8752 307.312 77.4846 306.406 84.9689 304.516C100.094 300.812 99.1408 296.047 99.1408 296.047C99.9533 303.062 93.0158 304.625 87.9377 306.219C87.4064 306.375 86.9064 306.578 86.3752 306.703C68.9845 311.141 62.9064 322.609 60.7502 321.219Z" fill="url(#paint1_linear)"/>
<path d="M75 338.609C76.3594 336.359 76.7344 333.625 76.0156 331.094C75.5156 329.609 74.5625 328.313 73.2656 327.422C73.4531 327.172 73.6406 326.938 73.8125 326.656C75.2031 324.484 75.4063 321.75 74.3594 319.391C73.1719 317.531 71.2344 316.297 69.0625 316.016C70.5469 316.734 71.6563 318.063 72.0938 319.656C72.3438 321.578 72.0625 323.547 71.3125 325.328C70.8197 326.524 70.0197 327.569 68.9935 328.356C67.9674 329.143 66.7514 329.646 65.4688 329.813C61.6875 330.563 62.8438 332.125 62.8438 332.125C63.1719 333.375 67.6406 332.219 71.0313 329.687C71.9844 330.187 72.7031 331.047 73.0469 332.063C73.4063 333.641 73.1875 335.313 72.4375 336.75C71.9159 337.887 71.1519 338.895 70.1991 339.705C69.2462 340.515 68.1276 341.106 66.9219 341.438C63.5625 342.359 64.4844 343.594 64.4844 343.594C64.4844 343.594 64.6406 346.25 71.5469 341.875C72.3594 343.438 73.4375 346.922 71.2813 349.172C63.9688 356.875 42.4219 359.844 42.4219 359.844C53.3594 359.844 68.3906 355.625 73.0469 351.766C73.9402 351.067 74.6641 350.176 75.1647 349.159C75.6652 348.142 75.9294 347.024 75.9375 345.891C76.1406 343.75 75.3438 341.625 73.7969 340.125C74.2344 339.656 74.6406 339.156 75 338.609Z" fill="url(#paint2_linear)"/>
<path d="M120.109 281.422C119.609 281.328 119.141 281.125 118.75 280.797C111.707 275.147 103.3 271.45 94.375 270.078C85.4532 268.531 76.2969 269.375 67.8125 272.515C67.3438 272.703 66.8438 272.765 66.3438 272.687C65.25 272.5 64.3594 271.687 64.0625 270.609C63.7656 269.547 64.125 268.422 64.9688 267.719C81.5313 253.969 106.094 256.25 119.844 272.812C120.969 274.172 122 275.609 122.938 277.094C123.531 278.015 123.531 279.203 122.938 280.125C122.328 281.078 121.219 281.578 120.109 281.422Z" fill="#422B0D"/>
<path d="M126.203 218.609C132.75 218.609 138.703 224.141 138.703 233.328C138.703 242.516 132.75 248.031 126.203 248.031C119.656 248.031 113.703 242.5 113.703 233.328C113.703 224.156 119.656 218.609 126.203 218.609Z" fill="#422B0D"/>
<path d="M72.0938 204.375C65.5469 204.375 59.5938 209.906 59.5938 219.078C59.5938 228.25 65.5469 233.797 72.0938 233.797C78.6563 233.797 84.5938 228.266 84.5938 219.078C84.5938 209.891 78.6563 204.375 72.0938 204.375Z" fill="#422B0D"/>
<path d="M62.0782 186.609C61.3751 185.453 61.2813 184.016 61.8282 182.781C62.4219 181.547 63.5938 180.703 64.9532 180.531C73.4688 179.203 82.1563 181.219 89.2188 186.141C91.8594 187.953 94.2032 190.141 96.1876 192.656C96.3126 192.812 96.4219 192.984 96.5313 193.172C97.5938 194.828 97.2344 197.016 95.7032 198.25C94.9073 198.909 93.9005 199.259 92.8674 199.236C91.8343 199.213 90.8441 198.819 90.0782 198.125L90.7344 197.062L89.9376 198C83.099 192.279 74.5368 189.022 65.6251 188.75C64.1407 188.75 62.7657 187.969 62.0157 186.687L62.0782 186.609Z" fill="#422B0D"/>
<path d="M145.313 214.563C145.883 214.244 146.371 213.795 146.735 213.252C147.099 212.708 147.329 212.087 147.406 211.438C147.455 210.77 147.338 210.102 147.066 209.491C146.793 208.88 146.373 208.346 145.844 207.938C139.078 202.547 130.484 199.969 121.875 200.781C118.688 201.047 115.563 201.797 112.594 203L112.031 203.266C110.297 204.188 109.531 206.266 110.25 208.094C110.616 209.053 111.315 209.848 112.218 210.335C113.121 210.823 114.169 210.97 115.172 210.75V209.5L115.391 210.719C124.141 209.094 133.188 210.453 141.078 214.578C142.375 215.313 143.953 215.313 145.25 214.578L145.313 214.563Z" fill="#422B0D"/>
<defs>
<linearGradient id="paint0_linear" x1="54.6453" y1="336.266" x2="54.2547" y2="284.109" gradientUnits="userSpaceOnUse">
<stop stop-color="#BF360C"/>
<stop offset="1" stop-color="#BF360C" stop-opacity="0.2"/>
</linearGradient>
<linearGradient id="paint1_linear" x1="61.3767" y1="317.864" x2="100.736" y2="298.317" gradientUnits="userSpaceOnUse">
<stop offset="0.13" stop-color="#DA6727"/>
<stop offset="1" stop-color="#FFC400"/>
</linearGradient>
<linearGradient id="paint2_linear" x1="59.3422" y1="356.672" x2="59.6703" y2="297.344" gradientUnits="userSpaceOnUse">
<stop offset="0.13" stop-color="#DA6727"/>
<stop offset="1" stop-color="#FFC400"/>
</linearGradient>
</defs>
</svg>

<svg width="353" height="370" fill="none" xmlns="http://www.w3.org/2000/svg"><path d="M253 25c-45.833 0-83.333 30-83.333 66.667 0 18.333 9.166 35 23.333 45.833 0 5-3.333 18.333-23.333 37.5 20-.833 38.333-8.333 54.166-20.833 9.167 2.5 19.167 4.166 29.167 4.166 45.833 0 83.333-30 83.333-66.666C336.333 55 298.833 25 253 25zm0 116.667c-36.667 0-66.667-22.5-66.667-50s30-50 66.667-50 66.667 22.5 66.667 50-30 50-66.667 50zm1.667-87.5c-7.5 0-13.334 1.666-17.5 4.166-5 3.334-7.5 8.334-6.667 14.167h16.667c0-2.5.833-4.167 2.5-5 1.666-.833 3.333-1.667 5.833-1.667s5 .834 6.667 2.5c1.666 1.667 2.5 3.334 2.5 5.834 0 2.5-.834 4.166-1.667 5.833-1.667 1.667-3.333 3.333-5 4.167-4.167 2.5-7.5 5-9.167 6.666-3.333 2.5-4.166 5-4.166 9.167h16.666c0-2.5.834-4.167.834-5.833.833-1.667 2.5-2.5 4.166-4.167 4.167-1.667 6.667-4.167 9.167-7.5s3.333-6.667 3.333-10c0-5.833-2.5-10.833-6.666-14.167-3.334-2.5-10-4.166-17.5-4.166zm-10 54.166V125h16.666v-16.667h-16.666zM99.375 355.625c-43.594 0-90.625-27.344-90.625-87.344 0-60 47.031-87.343 90.625-87.343 24.219 0 46.563 7.968 63.125 22.5 17.969 15.937 27.5 38.437 27.5 64.843 0 26.407-9.531 48.75-27.5 64.688-16.562 14.531-39.062 22.656-63.125 22.656z" fill="#FE9E45"/><path d="M99.375 355.625c-43.594 0-90.625-27.344-90.625-87.344 0-60 47.031-87.343 90.625-87.343 24.219 0 46.563 7.968 63.125 22.5 17.969 15.937 27.5 38.437 27.5 64.843 0 26.407-9.531 48.75-27.5 64.688-16.562 14.531-39.062 22.656-63.125 22.656z" fill="#FE9E45"/><path d="M174.203 216.359c8.328 13.438 12.672 29.438 12.672 47.235 0 26.406-9.531 48.75-27.5 64.687-16.563 14.531-39.063 22.657-63.125 22.657-28.219 0-57.813-11.485-75.281-35.844 16.812 27.593 48.437 40.531 78.406 40.531 24.063 0 46.563-8.125 63.125-22.656 17.969-15.938 27.5-38.281 27.5-64.688 0-19.906-5.422-37.594-15.797-51.922z" fill="#DD6E25"/><path opacity=".66" d="M10.125 287.359c1.563-4.078 8.469-4.14 13.578-1.671 9.89 4.796 8.719 15.296 13.672 17.39 4.953 2.094 20.594-10.734 42.578-12.765 2.469-.235 17.047-2.063 18.484 4.062.563 2.422-3.562 2.891-3.562 2.891-8.938 3.312-18.031 6.687-26.031 11.922-9.078 5.921-17.016 14.296-27.563 16.765-4.11.953-8.75.813-12.093-1.734-4.157-3.125-5.079-8.86-6.594-13.844a45.58 45.58 0 00-8.375-15.625" fill="url(#paint0_linear)"/><path d="M9.938 287.344c-2.844 3.453 3.203 12.625 4.28 17.296 2.595 11.282 0 14.063-.202 24.094-.172 11.031 3.125 20.313 11.531 26.235 7.906 5.609 16.61 6.25 28.797 2.656 12.187-3.594 20.422-5.328 21.047-11.328a5.738 5.738 0 00-3.25-5.985 5.603 5.603 0 002.734-2.797c2.906-6.937-2.89-8.406-2.89-8.406.796-.953 1.468-2 2-3.125 1.734-3.453 1.453-8.14-3.547-9.672-2.297-.703-2.922-.328-2.922-.328a25.355 25.355 0 018.36-5.703c8.405-3.609 18.374-5.797 20.858-7.906 3.61-3.125 3.829-9.141-2.546-10.938-9.157-2.687-26 3.563-36.25 10.078-10.25 6.516-19.657 10.032-22.782 8.844-3.125-1.187-5.062-3.125-6.25-7.812-2.203-8.719-3.906-12.094-7.64-15.36-3.094-2.656-9.14-2.5-11.328.157z" fill="#FFBB7C"/><path d="M60.75 321.219s-2.297-1.563 6.875-8.891c6.25-5.016 9.86-5.922 17.344-7.812 15.125-3.704 14.172-8.469 14.172-8.469.812 7.015-6.125 8.578-11.203 10.172-.532.156-1.032.359-1.563.484-17.39 4.438-23.469 15.906-25.625 14.516z" fill="url(#paint1_linear)"/><path d="M75 338.609a9.534 9.534 0 001.016-7.515 7.245 7.245 0 00-2.75-3.672c.187-.25.375-.484.546-.766a7.696 7.696 0 00.547-7.265 7.416 7.416 0 00-5.296-3.375 5.738 5.738 0 013.03 3.64 11.01 11.01 0 01-.78 5.672 7.34 7.34 0 01-5.844 4.485c-3.781.75-2.625 2.312-2.625 2.312.328 1.25 4.797.094 8.187-2.438.953.5 1.672 1.36 2.016 2.376.36 1.578.14 3.25-.61 4.687a8.566 8.566 0 01-5.515 4.688c-3.36.921-2.438 2.156-2.438 2.156s.157 2.656 7.063-1.719c.812 1.563 1.89 5.047-.266 7.297-7.312 7.703-28.86 10.672-28.86 10.672 10.938 0 25.97-4.219 30.626-8.078a7.537 7.537 0 002.89-5.875 7.115 7.115 0 00-2.14-5.766c.437-.469.844-.969 1.203-1.516z" fill="url(#paint2_linear)"/><path d="M120.109 281.422a2.938 2.938 0 01-1.359-.625 51.446 51.446 0 00-24.375-10.719 51.265 51.265 0 00-26.563 2.437c-.468.188-.968.25-1.468.172a2.88 2.88 0 01-2.281-2.078 2.781 2.781 0 01.906-2.89c16.562-13.75 41.125-11.469 54.875 5.093a41.428 41.428 0 013.094 4.282 2.804 2.804 0 010 3.031 2.882 2.882 0 01-2.829 1.297zm6.094-62.813c6.547 0 12.5 5.532 12.5 14.719 0 9.188-5.953 14.703-12.5 14.703s-12.5-5.531-12.5-14.703 5.953-14.719 12.5-14.719zm-54.109-14.234c-6.547 0-12.5 5.531-12.5 14.703s5.953 14.719 12.5 14.719c6.562 0 12.5-5.531 12.5-14.719 0-9.187-5.938-14.703-12.5-14.703zm-10.016-17.766a4.151 4.151 0 01-.25-3.828 4.02 4.02 0 013.125-2.25 33.426 33.426 0 0124.266 5.61c2.64 1.812 4.984 4 6.969 6.515.125.156.234.328.343.516a3.85 3.85 0 01-.828 5.078 4.297 4.297 0 01-5.625-.125l.656-1.063-.796.938a39.781 39.781 0 00-24.313-9.25 4.176 4.176 0 01-3.61-2.063l.063-.078zm83.235 27.954a4.138 4.138 0 002.093-3.125 4.045 4.045 0 00-1.562-3.5 33.446 33.446 0 00-23.969-7.157 31.733 31.733 0 00-9.281 2.219l-.563.266c-1.734.922-2.5 3-1.781 4.828a4.282 4.282 0 004.922 2.656v-1.25l.219 1.219a39.774 39.774 0 0125.687 3.859 4.222 4.222 0 004.172 0l.063-.015z" fill="#422B0D"/><defs><linearGradient id="paint0_linear" x1="54.645" y1="336.266" x2="54.255" y2="284.109" gradientUnits="userSpaceOnUse"><stop stop-color="#BF360C"/><stop offset="1" stop-color="#BF360C" stop-opacity=".2"/></linearGradient><linearGradient id="paint1_linear" x1="61.377" y1="317.864" x2="100.736" y2="298.317" gradientUnits="userSpaceOnUse"><stop offset=".13" stop-color="#DA6727"/><stop offset="1" stop-color="#FFC400"/></linearGradient><linearGradient id="paint2_linear" x1="59.342" y1="356.672" x2="59.67" y2="297.344" gradientUnits="userSpaceOnUse"><stop offset=".13" stop-color="#DA6727"/><stop offset="1" stop-color="#FFC400"/></linearGradient></defs></svg>
